X: 31762
T: Patrick Doherty's
R: barndance
M: 4/4
K: Dmajor
|:D>F|A<^GB>A F2 A2|f>ed>B A2 A>d|c2 B>A c2 B>A|F2 E2 F2 D>F|
A<^GB>A F2 A2|f>ed>B A>^GA>d|c2 B>A ^G>AB>c|d2 f2 d2:|
|:A>d|f2 f2 f>ag>f|(3efe B2 B2 e>d|c2 B>A c2 B>A|F2 E2 F2 A>d|
f2 f2 f>ag>f|(3efe B2 B>fe>d|c2 B>A ^G>AB>c|d2 f2 d2:|

